!!!COM: Palestrina, Giovanni Perluigi da
!!!OPR: De Beata Marie Virginis (III)
!!!OTL: Sanctus
**kern	**kern	**kern	**kern	**kern
*Ibass	*Itenor	*Itenor	*Icalto	*Icant
!Bassus	!Tenor 2	!Tenor 1	!Altus	!Cantus
*clefF4	*clefGv2	*clefGv2	*clefG2	*clefG2
*k[]	*k[]	*k[]	*k[]	*k[]
*G:mix	*G:mix	*G:mix	*G:mix	*G:mix
*M4/2	*M4/2	*M4/2	*M4/2	*M4/2
=1	=1	=1	=1	=1
0r	0r	0r	1g	0r
.	.	.	1e	.
=2	=2	=2	=2	=2
0r	0r	0r	4d	1dd
.	.	.	4e	.
.	.	.	4f	.
.	.	.	4d	.
.	.	.	4e	1b
.	.	.	4f#	.
.	.	.	[2g	.
=3	=3	=3	=3	=3
0r	1d	0r	2g]	1a
.	.	.	2f#	.
.	1B	.	2g	4b
.	.	.	.	4cc
.	.	.	2d	4dd
.	.	.	.	4b
=4	=4	=4	=4	=4
1r	1A	0r	4e	4cc#
.	.	.	4f	2dd
.	.	.	2e	.
.	.	.	.	4cc#
1G	4B	.	2d	2dd
.	4c	.	.	.
.	4d	.	[2g	2dd
.	4B	.	.	.
=5	=5	=5	=5	=5
1E	4c#	1r	2g]	4ee
.	2d	.	.	4ff
.	.	.	2e	4gg
.	4c#	.	.	4ee
1D	2d	1d	1a	4ff#
.	.	.	.	2gg
.	2A	.	.	.
.	.	.	.	4ff#
=6	=6	=6	=6	=6
4E	2G	1B	2r	1gg
4F	.	.	.	.
4G	2g	.	2e	.
4E	.	.	.	.
1F	1a	1A	2c	1r
.	.	.	2d	.
=7	=7	=7	=7	=7
2.E	0g	1B	2e	1gg
.	.	.	2.e	.
4D	.	.	.	.
4C	.	1c	.	1ee
4D	.	.	4f#	.
4E	.	.	4g	.
4F#	.	.	4a	.
=8	=8	=8	=8	=8
1.G	1.g	2.B	4b	2dd
.	.	.	4cc	.
.	.	.	1b	4g
.	.	4c	.	4a
.	.	1d	.	4b
.	.	.	.	4cc#
2D	2f	.	2a	[2dd
=9	=9	=9	=9	=9
0A	2e	0e	0a	2dd]
.	2.a	.	.	4cc#
.	.	.	.	4b
.	.	.	.	1cc#
.	4g	.	.	.
.	2e	.	.	.
=10	=10	=10	=10	=10
[0D	[0f#	[0d	[0a	[0dd
=11	=11	=11	=11	=11
0D]	0f#]	0d]	0a]	0dd]
==	==	==	==	==
*-	*-	*-	*-	*-
!!!CDT: 1525/^1526/-1594/2/2
!!!OCY: Italia
!!!AGN: Mass (Paraphrase)
!!!AST: renaissance, vocal
!!!ASW: Gregorian Mass
!!!PWK: Masses, Book Mantuan I
!!!RNB: Cadence finals: D
!!!YOR: Le Opere Complete, v. 18, p. 162
!!!YOO: Rome, Italy: Fratelli Scalera
!!!END: 1992//
!!!EED: John Miller
!!!YEC: Copyright 2000, John Miller
!!!YEN: United States of America
!!!YEM: Rights to all derivative electronic formats reserved.
!!!YEM: Refer to licensing agreement for further details.
!!!YEM: This file must be accompanied by the licensing agreement.
!!!YEM: A copy of the licensing agreement may be found at http://www.music-cog.ohio-state.edu/HumdrumDatabases/Palestrina/license.txt
!!!EMD: converted to Humdrum by Bret Aarden
